X: 1
T: Chasing Daylight
Z: pbsinclair42
S: https://thesession.org/tunes/15885#setting29874
R: reel
M: 4/4
L: 1/8
K: Bmin
ABBA f2>e | dBBA B2AG | GAAG Afed | e2>d efdc |
ABBA f2>e | dBBA B2AG | GAAG Afed | (e4 e)fdc :|
|: B2>(B B)dde | (f4 f)fed | B2>(B B)dde | f2a2 ab f/e/d |
B2>(B B)dde | (f4 f)fed | edf(c c)d(B2 | B)AAB Bddc :|
